X:15
T: Kilnaboy
S: Jimmy Hogan (as "gan ainm")
Z: B.Black
R: jig
M: 6/8
L: 1/8
K: G
D | GBA G2 D | GBA G2 D | GBA GFG | BAA AFD |
GBA G2 D | GBA G2 A | BdB AGA | BGG G2 :|
A | B3 c3 | ded B2 A | G2 e dBG | EAA AGA |
B3 c3 | ded B2 A | G2 e dBG | BGG G2 :|
